X: 27
T:Cutting Ferns
M:4/4
L:1/8
S:From Jerry Holland's Medley with Brenda Stubbert's
R:Strathsphey
K:Am
|:"Am"(3AAA a2 "G"geg2|"C"e>dB>A "G"G>AB<G|"Am" (3AAA a2 "G"g<eg2|
"Em"e>dB<g "Am"B<A A:|!
g|"Am"e>dB>A "G"G>AB<G|"Am"e>dB>A "G"B2B<g|"Am"e>dB>A "G"G>AB<d|"Em"e>dg
<B "Am"A2A<g|!
e>dB>A "G"G>AB<G|"Am"e>dB>A "G"B2B<g|"Am"e>dB>A "G"G>AB<d|"Em"e>dg<B Am"
A2A||!
